iconen/voertuig/103.svg

<?xml version="1.0" encoding="UTF-8" standalone="no"?>
<!-- Generator: Adobe Illustrator 24.1.0, SVG Export Plug-In . SVG Version: 6.00 Build 0)  -->

<svg
   xmlns:dc="http://purl.org/dc/elements/1.1/"
   xmlns:cc="http://creativecommons.org/ns#"
   xmlns:rdf="http://www.w3.org/1999/02/22-rdf-syntax-ns#"
   xmlns:svg="http://www.w3.org/2000/svg"
   xmlns="http://www.w3.org/2000/svg"
   xmlns:sodipodi="http://sodipodi.sourceforge.net/DTD/sodipodi-0.dtd"
   xmlns:inkscape="http://www.inkscape.org/namespaces/inkscape"
   version="1.1"
   id="svg8"
   inkscape:export-filename="/media/juhele/data_2TB/_GRAFIKA/GHS hazard symbols/GHS06_toxic_substances.png"
   inkscape:export-xdpi="99.027519"
   inkscape:export-ydpi="99.027519"
   inkscape:version="0.92.5 (2060ec1f9f, 2020-04-08)"
   sodipodi:docname="opstelpl_AL.svg"
   x="0px"
   y="0px"
   viewBox="0 0 125 125"
   xml:space="preserve"
   width="125"
   height="125"><metadata
   id="metadata916"><rdf:RDF><cc:Work
       rdf:about=""><dc:format>image/svg+xml</dc:format><dc:type
         rdf:resource="http://purl.org/dc/dcmitype/StillImage" /><dc:title /></cc:Work></rdf:RDF></metadata><defs
   id="defs914"><clipPath
     id="clipPath18"><path
       inkscape:connector-curvature="0"
       d="M 0,227.562 V 0 h 566.934 v 227.562 z"
       id="path20" /></clipPath><clipPath
     id="clipPath18-2"><path
       inkscape:connector-curvature="0"
       d="M 0,0 H 566.934 V 246 H 0 Z"
       id="path20-9" /></clipPath><clipPath
     id="clipPath18-2-1"><path
       inkscape:connector-curvature="0"
       d="M 0,0 H 566.934 V 246 H 0 Z"
       id="path20-9-0" /></clipPath><clipPath
     id="clipPath18-0"><path
       inkscape:connector-curvature="0"
       d="M 0,0 H 566.934 V 246 H 0 Z"
       id="path20-1" /></clipPath></defs><sodipodi:namedview
   pagecolor="#ffffff"
   bordercolor="#666666"
   borderopacity="1"
   objecttolerance="10"
   gridtolerance="10"
   guidetolerance="10"
   inkscape:pageopacity="0"
   inkscape:pageshadow="2"
   inkscape:window-width="1920"
   inkscape:window-height="1017"
   id="namedview912"
   showgrid="false"
   inkscape:zoom="6.1005126"
   inkscape:cx="43.382895"
   inkscape:cy="49.383253"
   inkscape:window-x="-8"
   inkscape:window-y="-8"
   inkscape:window-maximized="1"
   inkscape:current-layer="g944" />
<style
   type="text/css"
   id="style901">
	.st0{fill:#FFEB1D;}
</style>


<g
   id="g944"
   transform="matrix(1.0954926,0,0,1.411122,-43.307848,-18.392236)"><g
   id="g10"
   transform="matrix(1.25,0,0,-1.25,62.755096,68.085992)"><path
     style="fill:#ffffff;fill-opacity:1;stroke:none"
     id="path3001-6"
     transform="matrix(0.8,0,0,-0.8,0,24.65)"
     d="M 1.8959867,2.6096978 64.22655,2.8466961 68.729518,8.5346562 68.966516,23.465552 65.174543,27.257525 2.132985,27.494523 Z"
     inkscape:connector-curvature="0" /><g
     id="g12"
     transform="scale(0.1)"><g
       id="g14"><g
         id="g16"
         clip-path="url(#clipPath18-0)"><path
           style="fill:#ed1c24;fill-opacity:1;fill-rule:nonzero;stroke:none"
           id="path22"
           d="m 448.73,214.977 c 0,-4.278 0,-12.165 0,-12.165 0,0 52.325,-0.019 61.094,-0.019 21.543,-16.305 25.567,-27.145 25.567,-32.164 l 0.039,-94.711 c 0,-7.9805 -10.45,-20.3321 -25.879,-32.1602 -9.219,0 -60.703,0 -60.703,0 0,0 0,-7.957 -0.039,-12.1875 -15.235,0 -32.911,0 -48.223,0 0,4.2891 0,12.1485 0,12.1485 H 133.434 c 0,0 0,-7.9766 0,-12.2266 -15.485,0 -33.852,0 -49.3246,0 0,4.2695 -0.0078,12.207 -0.0078,12.207 0,0 -37.086,-0.039 -52.5352,-0.039 -0.0078,24.1132 -0.0469,134.9178 -0.0586,159.0388 15.461,0.012 52.5664,0.02 52.5664,0.02 0,0 0,7.922 0,12.187 15.4766,0 33.8478,0 49.3208,0 0,-4.277 0,-12.176 0,-12.176 l 267.152,0.028 c 0,0 0,7.961 0,12.207 15.312,0 32.91,0.012 48.183,0.012 z m 15.762,31.496 -95.43,-0.02 c 0,0 0,-7.949 0,-12.207 -25.449,0 -178.707,-0.008 -204.175,-0.019 0,4.277 0,12.168 0,12.168 H 52.582 c 0,0 0,-7.93 0,-12.188 C 37.125,234.199 0,234.188 0,234.188 L 0.078125,12.1289 c 0,0 37.105475,0.0391 52.554675,0.0391 C 52.6328,7.92188 52.6406,0 52.6406,0 H 164.926 c 0,0 0,7.97656 0,12.2266 25.461,0 178.726,0 204.176,0 0,-4.2891 0,-12.148475 0,-12.148475 h 111.113 c 0,0 0.039,7.957035 0.039,12.187475 15,0 40.234,0 40.234,0 l 4.102,2.9375 c 19.316,13.7891 42.305,35.5274 42.344,60.6758 l -0.039,94.7501 c 0,20.543 -13.848,40.41 -42.422,60.734 l -4.063,2.922 c 0,0 -25.156,0.012 -40.195,0.02 0,4.269 0,12.179 0,12.179 l -15.723,-0.011"
           inkscape:connector-curvature="0" /><path
           style="fill:#ed1c24;fill-opacity:1;fill-rule:nonzero;stroke:none"
           id="path24"
           d="m 462.617,62.4219 32.285,1.7656 c 0,0 6.114,33.957 6.075,59.9175 0,25.899 -6.114,58.52 -6.114,58.52 l -32.285,2.691 0.039,-122.8941"
           inkscape:connector-curvature="0" /></g></g></g></g><g
   aria-label="AL"
   style="font-style:normal;font-weight:normal;line-height:0%;font-family:sans-serif;letter-spacing:0px;word-spacing:0px;fill:#ed1c24;fill-opacity:1;stroke:none"
   id="text3036"><path
     d="M 96.178017,60.40509 H 91.913368 L 90.806923,57.171692 H 84.877235 L 83.77079,60.40509 h -4.157226 l 5.908203,-15.995117 h 4.748047 z m -6.370118,-6.166015 -1.96582,-5.736328 -1.96582,5.736328 z"
     style="font-weight:bold;font-size:22px;line-height:1.25;font-family:sans-serif;-inkscape-font-specification:'Sans Bold';letter-spacing:0px;fill:#ed1c24;fill-opacity:1"
     id="path2659" /><path
     d="M 110.03544,60.40509 H 98.498329 V 44.409973 h 4.125001 V 57.31134 h 7.41211 z"
     style="font-weight:bold;font-size:22px;line-height:1.25;font-family:sans-serif;-inkscape-font-specification:'Sans Bold';letter-spacing:0px;fill:#ed1c24;fill-opacity:1"
     id="path2661" /></g>
</g></svg>

<?xml version="1.0" encoding="UTF-8"?>
<!-- Generator: Adobe Illustrator 24.1.0, SVG Export Plug-In . SVG Version: 6.00 Build 0)  -->
<svg width="125" height="125" version="1.1" viewBox="0 0 125 125" xml:space="preserve" xmlns="http://www.w3.org/2000/svg" xmlns:cc="http://creativecommons.org/ns#" xmlns:dc="http://purl.org/dc/elements/1.1/" xmlns:rdf="http://www.w3.org/1999/02/22-rdf-syntax-ns#"><metadata><rdf:RDF><cc:Work rdf:about=""><dc:format>image/svg+xml</dc:format><dc:type rdf:resource="http://purl.org/dc/dcmitype/StillImage"/></cc:Work></rdf:RDF></metadata><defs><clipPath id="clipPath18-0"><path d="m0 0h566.93v246h-566.93z"/></clipPath></defs>
<style type="text/css">
	.st0{fill:#FFEB1D;}
</style>


<g transform="matrix(1.0955 0 0 1.4111 -43.308 -18.392)"><g transform="matrix(1.25 0 0 -1.25 61.151 72.7)"><path transform="matrix(.8 0 0 -.8 0 24.65)" d="m1.896 2.6097 62.331 0.237 4.503 5.688 0.237 14.931-3.792 3.792-63.042 0.237z" fill="#fff"/><g transform="scale(.1)"><g clip-path="url(#clipPath18-0)" fill="#ed1c24"><path d="m448.73 214.98v-12.165s52.325-0.019 61.094-0.019c21.543-16.305 25.567-27.145 25.567-32.164l0.039-94.711c0-7.9805-10.45-20.332-25.879-32.16h-60.703s0-7.957-0.039-12.188h-48.223v12.148h-267.15v-12.227h-49.325c0 4.2695-0.0078 12.207-0.0078 12.207s-37.086-0.039-52.535-0.039c-0.0078 24.113-0.0469 134.92-0.0586 159.04 15.461 0.012 52.566 0.02 52.566 0.02v12.187h49.321v-12.176l267.15 0.028v12.207c15.312 0 32.91 0.012 48.183 0.012zm15.762 31.496-95.43-0.02v-12.207c-25.449 0-178.71-8e-3 -204.18-0.019v12.168h-112.3v-12.188c-15.457-8e-3 -52.582-0.019-52.582-0.019l0.078125-222.06s37.105 0.0391 52.555 0.0391c0-4.2461 0.0078-12.168 0.0078-12.168h112.29v12.227h204.18v-12.148h111.11s0.039 7.957 0.039 12.187h40.234l4.102 2.9375c19.316 13.789 42.305 35.527 42.344 60.676l-0.039 94.75c0 20.543-13.848 40.41-42.422 60.734l-4.063 2.922s-25.156 0.012-40.195 0.02v12.179l-15.723-0.011"/><path d="m462.62 62.422 32.285 1.7656s6.114 33.957 6.075 59.918c0 25.899-6.114 58.52-6.114 58.52l-32.285 2.691 0.039-122.89"/></g></g></g><g transform="translate(1.7602 4.9172)" fill="#ed1c24" aria-label="AL"><path d="m96.178 60.405h-4.2646l-1.1064-3.2334h-5.9297l-1.1064 3.2334h-4.1572l5.9082-15.995h4.748zm-6.3701-6.166-1.9658-5.7363-1.9658 5.7363z"/><path d="m110.04 60.405h-11.537v-15.995h4.125v12.901h7.4121z"/></g>
</g></svg>
